packages/tokens/icons/cloudCoveo/size16Px.svg

<svg viewBox="0 0 16 16" fill="none" xmlns="http://www.w3.org/2000/svg" width="1em" height="1em"><path d="M10.1294 8.86556C9.61302 8.35214 8.95156 8.0637 8.2727 8.00024C8.19147 7.99447 8.14505 8.09254 8.20307 8.15023L9.28809 9.22899C9.29389 9.23476 9.28809 9.2463 9.27649 9.24053C8.96317 9.01554 8.60923 8.88863 8.24369 8.85402C8.18566 8.84825 8.15666 8.91747 8.19727 8.95786L8.93996 9.69625C8.94576 9.70202 8.93996 9.71356 8.92835 9.70779C8.72527 9.56934 8.49318 9.48858 8.25529 9.46551C8.21468 9.45974 8.19147 9.51166 8.22048 9.53473L9.47956 10.7865C9.50858 10.8154 9.55499 10.7923 9.54919 10.7519C9.52598 10.5154 9.44475 10.2847 9.30549 10.0828C9.2997 10.077 9.3113 10.0655 9.3171 10.0712L10.0308 10.7808C10.0714 10.8212 10.141 10.7865 10.1352 10.7346C10.1062 10.377 9.97855 10.0193 9.75227 9.71356C9.74646 9.70779 9.75807 9.69625 9.76387 9.70202L10.8489 10.7808C10.9069 10.8385 11.0055 10.7923 10.9998 10.7058C10.9359 10.0366 10.6458 9.37898 10.1294 8.86556ZM5.87058 8.86556C6.38698 8.35214 7.04843 8.0637 7.72729 8.00024C7.80852 7.99447 7.85494 8.09254 7.79692 8.15023L6.7119 9.22899C6.7061 9.23476 6.7119 9.2463 6.7235 9.24053C7.03682 9.01554 7.39076 8.88863 7.7563 8.85402C7.81432 8.84825 7.84333 8.91747 7.80272 8.95786L7.06003 9.69625C7.05423 9.70202 7.06003 9.71356 7.07164 9.70779C7.27472 9.56934 7.50681 9.48858 7.74469 9.46551C7.78531 9.45974 7.80852 9.51166 7.77951 9.53473L6.52043 10.7923C6.49142 10.8212 6.445 10.7981 6.4508 10.7577C6.47401 10.5212 6.55524 10.2904 6.69449 10.0885C6.7003 10.0828 6.68869 10.0712 6.68289 10.077L5.96922 10.7865C5.9286 10.8269 5.85897 10.7923 5.86478 10.7404C5.89959 10.377 6.02724 10.0193 6.25352 9.71356C6.25933 9.70779 6.24772 9.69625 6.24192 9.70202L5.1511 10.7808C5.09308 10.8385 4.99444 10.7923 5.00024 10.7058C5.06407 10.0366 5.35418 9.37898 5.87058 8.86556ZM5.87058 13.1344C6.38698 13.6479 7.04843 13.9363 7.72729 13.9998C7.80852 14.0055 7.85494 13.9074 7.79692 13.8498L6.7119 12.771C6.7061 12.7652 6.7119 12.7537 6.7235 12.7595C7.03682 12.9844 7.39076 13.1114 7.7563 13.146C7.81432 13.1517 7.84333 13.0825 7.80272 13.0421L7.06003 12.3037C7.05423 12.298 7.06003 12.2864 7.07164 12.2922C7.27472 12.4306 7.50681 12.5114 7.74469 12.5345C7.78531 12.5402 7.80852 12.4883 7.77951 12.4653L6.52043 11.2077C6.49142 11.1788 6.445 11.2019 6.4508 11.2423C6.47401 11.4788 6.55524 11.7095 6.69449 11.9115C6.7003 11.9172 6.68869 11.9288 6.68289 11.923L5.96922 11.2134C5.9286 11.1731 5.85897 11.2077 5.86478 11.2596C5.89959 11.623 6.02724 11.9807 6.25352 12.2864C6.25933 12.2922 6.24772 12.3037 6.24192 12.298L5.1511 11.2192C5.09308 11.1615 4.99444 11.2077 5.00024 11.2942C5.06407 11.9634 5.35418 12.621 5.87058 13.1344ZM10.1294 13.1344C9.61302 13.6479 8.95156 13.9363 8.2727 13.9998C8.19147 14.0055 8.14505 13.9074 8.20307 13.8498L9.28809 12.771C9.29389 12.7652 9.28809 12.7537 9.27649 12.7595C8.96317 12.9844 8.60923 13.1114 8.24369 13.146C8.18566 13.1517 8.15666 13.0825 8.19727 13.0421L8.93996 12.3037C8.94576 12.298 8.93996 12.2864 8.92835 12.2922C8.72527 12.4306 8.49318 12.5114 8.25529 12.5345C8.21468 12.5402 8.19147 12.4883 8.22048 12.4653L9.47956 11.2134C9.50858 11.1846 9.55499 11.2077 9.54919 11.248C9.52598 11.4846 9.44475 11.7153 9.30549 11.9172C9.2997 11.923 9.3113 11.9345 9.3171 11.9288L10.0308 11.2192C10.0714 11.1788 10.141 11.2134 10.1352 11.2654C10.1062 11.623 9.97855 11.9807 9.75227 12.2922C9.74646 12.298 9.75807 12.3095 9.76387 12.3037L10.8489 11.225C10.9069 11.1673 11.0055 11.2134 10.9998 11.3C10.9359 11.9634 10.6458 12.621 10.1294 13.1344Z" fill="currentColor"/><path d="M13.403 10.1955C14.0758 9.62575 14.5 8.79596 14.5 7.8972C14.5 6.37047 13.276 5.10887 11.6883 4.91039C11.1613 3.49146 9.70902 2.47201 8 2.47201C5.84609 2.47201 4.1 4.09131 4.1 6.08881C2.66406 6.08881 1.5 7.16833 1.5 8.5C1.5 9.315 1.93602 10.0356 2.60353 10.472" stroke="currentColor" stroke-linecap="round" stroke-linejoin="round"/></svg>

<svg xmlns="http://www.w3.org/2000/svg" fill="none" viewBox="0 0 16 16" width="1em" height="1em"><path fill="currentColor" d="M10.13 8.866A3.024 3.024 0 0 0 8.272 8c-.082-.006-.128.093-.07.15l1.086 1.08c.006.006 0 .017-.012.012a2.098 2.098 0 0 0-1.032-.387c-.058-.006-.087.063-.047.104l.743.738c.006.006 0 .018-.012.012a1.44 1.44 0 0 0-.673-.242c-.04-.006-.064.046-.035.069l1.26 1.252a.04.04 0 0 0 .07-.035 1.42 1.42 0 0 0-.245-.67c-.005-.005.006-.017.012-.01l.714.709c.04.04.11.005.104-.046a1.991 1.991 0 0 0-.383-1.021c-.006-.006.006-.018.012-.012l1.085 1.079c.058.057.156.011.15-.075a2.992 2.992 0 0 0-.87-1.84Zm-4.26 0A3.024 3.024 0 0 1 7.728 8c.082-.006.128.093.07.15L6.712 9.23c-.006.006 0 .017.011.012a2.098 2.098 0 0 1 1.033-.387c.058-.006.087.063.047.104l-.743.738c-.006.006 0 .018.012.012a1.44 1.44 0 0 1 .673-.242c.04-.006.064.046.035.069l-1.26 1.257a.04.04 0 0 1-.07-.034c.024-.237.105-.468.244-.67.006-.005-.005-.017-.011-.011l-.714.71c-.04.04-.11.005-.104-.047.035-.363.162-.72.389-1.026.005-.006-.006-.018-.012-.012l-1.09 1.079c-.059.057-.158.011-.152-.075a2.99 2.99 0 0 1 .87-1.84Zm0 4.268A3.024 3.024 0 0 0 7.728 14c.082.005.128-.093.07-.15l-1.086-1.08c-.006-.006 0-.017.011-.012a2.1 2.1 0 0 0 1.033.387c.058.006.087-.064.047-.104l-.743-.738c-.006-.006 0-.018.012-.012.203.139.435.22.673.242.04.006.064-.046.035-.069l-1.26-1.257a.04.04 0 0 0-.07.034c.024.237.105.467.244.67.006.005-.005.017-.011.011l-.714-.71c-.04-.04-.11-.005-.104.047.035.363.162.72.389 1.026.005.006-.006.018-.012.012l-1.09-1.079c-.059-.057-.158-.011-.152.075a2.99 2.99 0 0 0 .87 1.84Zm4.26 0A3.024 3.024 0 0 1 8.272 14c-.082.005-.128-.093-.07-.15l1.085-1.079c.006-.006 0-.017-.012-.012a2.1 2.1 0 0 1-1.032.387c-.058.006-.087-.064-.047-.104l.743-.738c.006-.006 0-.018-.012-.012a1.44 1.44 0 0 1-.673.242c-.04.006-.064-.046-.035-.069l1.26-1.252a.04.04 0 0 1 .07.035 1.42 1.42 0 0 1-.245.67c-.005.005.006.017.012.01l.714-.709c.04-.04.11-.006.104.046a2.03 2.03 0 0 1-.383 1.027c-.006.006.006.018.012.012l1.085-1.079c.058-.058.156-.012.15.075a2.992 2.992 0 0 1-.87 1.834Z"/><path stroke="currentColor" stroke-linecap="round" stroke-linejoin="round" d="M13.403 10.195c.673-.57 1.097-1.399 1.097-2.298 0-1.527-1.224-2.788-2.812-2.987C11.161 3.491 9.71 2.472 8 2.472c-2.154 0-3.9 1.62-3.9 3.617-1.436 0-2.6 1.08-2.6 2.411 0 .815.436 1.536 1.104 1.972"/></svg>
